!!!COM: Scarlatti, Domenico
!!!CDT: 1685-1757
!!!OTL: Sonata in G minor, L.338, K.450
!!!SCT: K. 450
!!!SCT: L. 338
!!!OMD: Allegrissimo ([quarter]=112)
**kern	**kern	**dynam
*staff2	*staff1	*staff1/2
*Icemba	*Icemba	*
*I"L.338 (K.450)	*I"L.338 (K.450)	*
*>[A,A,B,B]	*>[A,A,B,B]	*>[A,A,B,B]
*>norep[A,B]	*>norep[A,B]	*>norep[A,B]
*>A	*>A	*>A
*clefG2	*clefG2	*
*k[b-e-]	*k[b-e-]	*
*g:	*g:	*
*met(c)	*met(c)	*
*M4/4	*M4/4	*
*MM112	*MM112	*
=1-	=1-	=1-
*^	*^	*
(8gL	2g^	2gg^	(8ggL	f
8b-)	.	.	16ddL)	.
.	.	.	16dd'JJ	.
8b-'	.	.	8dd'L	.
8b-'J	.	.	8dd'J	.
(8ccL	2g^	2gg^	(8ee-L	.
8b-)	.	.	16ddL)	.
.	.	.	16dd'JJ	.
8b-'	.	.	8dd'L	.
8b-'J	.	.	8dd'J	.
*v	*v	*	*	*
*	*v	*v	*
=2	=2	=2
8g' 8cc'L	8ee- (8ggLM	.
8g' 8cc'J	16ff#L	.
.	16ggJJ	.
8f#' 8a'L	8aaL	.
8d' 8a'J	16ddL	.
.	16ccJJ)	.
8g'L	(<8b-L<M	.
8e-'J	16aL	.
.	16b-JJ	.
8c'L	8a 8ccL	.
8d'J	16g 16b-L	.
.	16f#) 16aJJ	.
!!LO:LB:g=z
=3	=3	=3
*^	*^	*
(8gL	2g^	2gg^	(8ggL	.
8b-)	.	.	16ddL)	.
.	.	.	16dd'JJ	.
8b-'	.	.	8dd'L	.
8b-'J	.	.	8dd'J	.
(8ccL	2g^	2gg^	(8ee-L	.
8b-)	.	.	16ddL)	.
.	.	.	16dd'JJ	.
8b-'	.	.	8dd'L	.
8b-'J	.	.	8dd'J	.
*v	*v	*	*	*
*	*v	*v	*
=4	=4	=4
8g' 8cc'L	8ee- (8ggLM	.
8g' 8cc'J	16ff#L	.
.	16ggJJ	.
8f#' 8a'L	8aaL	.
8d' 8a'J	16ddL	.
.	16ccJJ)	.
8g'L	(8b-L<M	>
8e-'J	16aL	.
.	16b-JJ	.
8c'L	8a 8ccL	.
8d'J	16g 16b-L	.
.	16f# 16aJJ	.
!!LO:LB:g=z
=5	=5	=5
8G'	8g'L)	p
*clefF4	*	*
8G' 8g'L	(16b-LM	.
.	16aJJ	.
8Fn' 8fn'	8b-'L)	<
8E-' 8e-'J	(16ddLm	.
.	16ccJJ	.
8D' 8d'L	8dd'L)	.
8C' 8c'	(16ffLM	.
.	16ee-JJ	.
8BB-' 8B-'	8ff'L)	.
8FF' 8F'J	16dd (16bb-L	.
.	16cc 16aaJJ	.
=6	=6	=6
*	*^	*
8BBB-'+ 8BB-'	4ryy	8dd' 8bb-'L)	f
*clefG2	*	*	*
8b- (8ddL	.	(16ffLM>	p
.	.	16eenJJ	.
8a' 8cc')	4ryy	8ff'L)	.
(8g 8b-J	.	(16aaLm>	.
.	.	16ggJJ	.
8f' 8a'L)	8aa'L	4ff)	.
(8B- 8g	(16bb-L	.	.
.	16ggJJ	.	.
8c') 8f'	4ryy	8ff' 8aa'L)	.
8c' 8g'J	.	8ee' 8gg'J	.
*	*v	*v	*
!!LO:LB:g=z
=7	=7	=7
8F'	8a'+ 8ff'L	.
*clefF4	*	*
8F' 8f'L	(16ccLM	<
.	16bnJJ	.
8E-' 8e-'	8cc'L)	.
8D' 8d'J	(16ee-XLM	.
.	16ddJJ	.
8C' 8c'L	8ee-'L)	.
8AA-' 8A-'J	(16ggLm	.
.	16ffJJ	.
8GG' 8G'L<	8gg'L)	.
8GG' 8G'J	16ee- (16cccL	.
.	16dd 16bbnJJ	.
=8	=8	=8
*	*^	*
8CC'+ 8C'	4ryy	8ee-' 8ccc'L)	f
*clefG2	*	*	*
8cc (8ee-L	.	(16ggL	p
.	.	16ff#JJ	.
8b-' 8dd')	4ryy	8gg'L)	.
8a (8ccJ	.	(16bb-LM>	.
.	.	16aaJJ	.
8g' 8b-'L)	8bb-'L)	4gg	.
(8c 8a	(16cccL	.	.
.	16aaJJ	.	.
8d') 8g'	4ryy	8gg' 8bb-'L)	.
8d' 8a'J	.	8ff#' 8aa'J	.
!!LO:LB:g=z
=9	=9	=9	=9
8G'	8gg'L	8b-+	.
(8g 8b-L	([8bb-^J	(8cc#L	mf
8f 8a)	8bb-L]	8dd)	.
8en' 8g'J	16aaL	8een'J	.
.	16ggJJ	.	.
8d' 8a'L	2ryy	8ff'L)	.
(8G 8g	.	(16eeL	.
.	.	16ddJJ	.
8A' 8g')	.	8cc#'L)	.
(8B- 8gJ	.	(16ddLM>	.
.	.	32cc#L	.
.	.	32ddJJJ	.
*	*v	*v	*
=10	=10	=10
8A' 8g'+)	8cc#'+ 8een')+	.
8G' 8g'L	16cc# (16eeLL	p
.	16dd 16ffJJ)	.
8G' 8g'	8cc#' 8ee'Lm	.
8A' 8a'J	16cc# (16eeL	.
.	16dd 16ffJJ)	.
8B-' 8b-'L	8cc#' 8ee'Lm	.
8G' 8g'	16cc# (16eeL	.
.	16dd 16ffJJ)	.
8G' 8g'	8cc#' 8ee'Lm	.
8A' 8a'J	16cc# (16eeL	.
.	16dd 16ffJJ)	.
!!LO:LB:g=z
=11	=11	=11
8B- 8b-	8cc#' 8een'Lm	<
*clefF4	*	*
8C#' 8c#'L	16ee (16ggL	.
.	16ff 16aaJJ)	.
8C#' 8c#'	8ee' 8gg'LM	.
8D' 8d'J	16ee (16ggL	.
.	16ff 16aaJJ)	.
8En' 8en'L	8ee' 8gg'LM	.
8C#' 8c#'	16ee (16ggL	.
.	16ff 16aaJJ)	.
8C#' 8c#'	8ee' 8gg'LM	.
8D' 8d'J	16ee (16ggL	.
.	16ff 16aaJJ)	.
=12	=12	=12
*	*^	*
8En' 8en'	8gg'LM	8eenL+	f
*clefG2	*	*	*
(8F 8fL	(8aaJ	(16ffL	.
.	.	16eeJJ	.
8G' 8g')	8bb-'L)	8dd'L)	.
(8A 8aJ	(16aaL	(8cc#J	.
.	16ggJJ	.	.
8B-' 8b-'L)	8ffL	8dd))	.
(8G 8g	(16eeL	(4dd^	.
.	16ffJJ	.	.
8A 8a)	8ggL)	.	.
8A' 8a'J	(16ffL	8cc#	.
.	16eeJJ	.	.
*clefF4	*	*	*
*	*v	*v	*
!!LO:LB:g=z
=13	=13	=13
8D 8d+	8dd'L))	.
*clefG2	*	*
8G' 8g'L	16cc# (16eenL	pp
.	16dd 16ffJJ)	.
8G' 8g'	8cc#' 8ee'Lm	.
8A' 8a'J	16cc#' (16ee'L	.
.	16dd 16ffJJ)	.
8B-' 8b-'L	8cc#' 8ee'Lm	.
8G' 8g'	16cc# (16eeL	.
.	16dd 16ffJJ)	.
8G' 8g'	8cc#' 8ee'Lm	.
8A' 8a'J	16cc# (16eeL	.
.	16dd 16ffJJ)	.
=14	=14	=14
8B-' 8b-'	8cc#' 8een'Lm	<
*clefF4	*	*
8C#' 8c#'L	16ee (16ggL	.
.	16ff 16aaJJ)	.
8C#' 8c#'	8ee' 8gg'LM	.
8D' 8d'J	16ee (16ggL	.
.	16ff 16aaJJ)	.
8En' 8en'L	8ee' 8gg'LM	.
8C#' 8c#'	16ee (16ggL	.
.	16ff 16aaJJ)	.
8C#' 8c#'	8ee' 8gg'LM	.
8D' 8d'J	16ee (16ggL	.
.	16ff 16aaJJ)	.
!!LO:LB:g=z
=15	=15	=15
*	*^	*
8En' 8en'	8gg'LM	8eenL	.
*clefG2	*	*	*
(8F 8fL	(8aaJ	(16ffL	.
.	.	16eeJJ	.
8G' 8g')	8bb-'L)	8dd'L)	.
(8A 8aJ	(16aaL	(8cc#J	.
.	16ggJJ	.	.
8B-' 8b-'L)	8ff'L)	8dd)	.
(8G 8g	(16eeL	(4dd^	.
.	16ffJJ	.	.
8A 8a)	8ggL)	.	.
8A' 8a'J	(16ffL	8cc#	.
.	16eeJJ	.	.
*clefF4	*	*	*
*	*v	*v	*
=16	=16	=16
8D' 8d'L	8dd'L))	f
(<8F' 8d'J	(16dddL	.
.	16ffJJ	.
8G') 8d' 8en'L	8een'L)	.
8G' 8d' 8e'J	8ee'J	.
8B-' 8d' 8e'L	8ee'L	.
(<8F' 8d' 8e'J	(16dddL	.
.	16ffJJ	.
8G') 8d' 8e'L	8ee'L)	.
8A' 8d' 8e'J	8ee'J	.
!!LO:LB:g=z
=17	=17	=17
8B-' 8d' 8g'L	(8ggL	.
(<8G' 8d' 8g'J	16ffL	.
.	16eenJJ	.
8A') 8d' 8f'L	8ddL)	.
8A' 8en'J	8cc#'Jm	.
8D' 8d'L	8dd'L	.
(<8F' 8d'J	(16ffL	p
.	16aJJ	.
8G') 8d' 8e'L	8g'L)	.
8A' 8d' 8e'J	8g'J	.
=18	=18	=18
8B-' 8d' 8en'L	8g'L	.
(<8F' 8d' 8e'J	(16ffL	.
.	16aJJ	.
8G' 8d' 8e'L)	8g'L)	.
8A' 8d' 8e'J	8g'J	.
8B-' 8d' 8g'L	(8ggL	mf
(<8G' 8d' 8g'J	16ffL	>
.	16eenJJ	.
8A') 8d' 8f'L	8ddL)	.
8A' 8e'J	8cc#'Jm	]]
!!LO:LB:g=z
=19	=19	=19
8D' 8d'L	8dd'L	.
(<8D' 8d'J	(16ffL	f
.	16aJJ	.
8G') 8d'L	8b-'L)	.
(<8En 8c#J	(16ggL	.
.	16cc#JJ	.
8F') 8d'L	8aa'L)	.
(<8G 8enJ	(16bb-L	.
.	16ggJJ	.
8A') 8f'L	8dd'L)	.
8A' 8e'J	8cc#'Jm	.
=20	=20	=20
*^	*	*
4ryy	8D' 8d'L	8dd'L	.
.	(<8D 8dJ	(16ffL	.
.	.	16aJJ	.
4ryy	8G') 8d'L	8b-'L)	.
.	&(<8En (8c#J	(16ggL	.
.	.	16cc#JJ	.
4d)	8FL	8dd'L)	.
.	8GJ	(16b-L	.
.	.	16gJJ	.
4ryy	8A'L&)	8d' 8f'L)	.
.	8AA'J	8c#' 8en'J	.
*v	*v	*	*
=21	=21	=21
1DD^	1d^	.
!!LO:LB:g=z
=22:|!|:	=22:|!|:	=22:|!|:
*>B	*>B	*>B
*clefG2	*	*
8d' 8f#'L	(8ddL	p
8d' 8f#'J	16aL)	.
.	16a'JJ	.
8d' 8f#'L	8a'L<	.
8d' 8g'J	8b-'J	.
8c' 8g'L	8a (8ccL	.
8c' 8g'	8b- 8dd)	.
8c' 8g'	8a' 8cc'	.
8c' 8g'J	8b-'J	.
=23	=23	=23
8d' 8f#'L	(8ddL	.
8d' 8f#'J	16aL)	.
.	16a'JJ	.
8d' 8f#'L	8a'L<	.
8d' 8g'J	8b-'J	.
8c' 8g'L	8a (8ccL	.
8c' 8g'	8b- 8dd)	.
8c' 8g'	8a' 8cc'	.
8c' 8g'J	8b-'J	.
!!LO:LB:g=z
=24	=24	=24
*	*^	*
8d' 8f#'L	4ryy	(8ddL	<
8d' 8f#'J	.	16aL)	.
.	.	16a'JJ	.
8d' 8f#'L	4ryy	8a'L<	.
(8d 8f#J	.	(8bnJ	.
8d#') 8f#'L	8ccL	4a	.
8d#' 8f#'J	16bL	.	.
.	16ccJJ)	.	.
8d#' 8f#'L	8a' 8cc'L>	4ryy	.
8d#' 8f#'J	8a' 8cc'J	.	.
*	*v	*v	*
=25	=25	=25
8en'L	8a (8ccL	.
8e'J	16g# 16bnL	.
.	16a 16ccJJ	.
8e'L	8b' 8dd'L)	.
(8eJ	8cc (8eenJ	.
8dL)	8dd 8ffL)	f >
(8dJ	16cc (16eeL	.
.	16b 16ddJJ	.
8eL)	8a 8ccL<)	.
8e'J	8g#' 8b'J	]]
!!LO:LB:g=z
=26	=26	=26
8A' 8en'L	8a' 8cc'L	p
8A' 8e'J	(16ccL	<
.	16ddJJ)	.
8A' 8e'L	8cc'LM	.
8A' 8e'J	(16ccL	.
.	16ddJJ)	.
*clefF4	*	*
8G' 8B-' 8c' 8en'L	8cc'LM	.
8G' 8B-' 8c' 8e'J	(16ccL	.
.	16ddJJ)	.
8G' 8B-' 8c' 8e'L	8cc'LM	.
8G' 8B-' 8c' 8e'J	16ccL	.
.	16ddJJ	.
=27	=27	=27
8F' 8c' 8f'L	8cc'Lm	.
8F' 8B-' 8f'J	8b-'+ 8dd-'J	.
8F' 8B-' 8f'L	8cc' 8ee-X'L	.
8F' 8B-' 8f'J	8dd-' 8ff'J	.
8E-X' 8B-' 8c'L	8ee- (8gg-L	f
8E-' 8B-' 8c'J	16dd- 16ffL	.
.	16cc 16ee-JJ	>
8F' 8f'L	8b-' 8dd-'L)	.
8F' 8f'J	8a' 8cc'J	]]
!!LO:LB:g=z
=28	=28	=28
8B-' 8d-' 8f'L	8b-' 8dd-'L	]
8B-' 8d-' 8f'J	(16b-L	<
.	16ccJJ	.
8B-' 8d-' 8f'L	8b-' 8dd-'L)	.
8B-' 8d-' 8f'J	8cc' 8ee-'J	[[
8D-' 8d-'L	8dd-' (8ff'L	>
(<8D- 8d-J	16cc 16ee-L	.
.	16b- 16dd-JJ	.
8E-') 8e-'L	8a-' 8cc'L)	.
8E-' 8e-'J	8g' 8b-'J	]
=29	=29	=29
*	*^	*
8A-' 8e-'L	4ryy	8a-' 8cc'L	<
8A- (8fJ	.	8bn (8ddnJ	.
8G' 8e-'L)	4ryy	8cc' 8ee-'L)	.
8F' 8d'J	.	8dd' 8ff'J	.
8E-' 8c'L	8ggL	8ee-L	.
8F (8fJ	(16aa-L	8ddJ	.
.	16ffJJ	.	.
8G' 8g'L)	4ryy	8cc' 8ee-'L)	.
8G' 8g'J	.	8b' 8dd'J	.
*	*v	*v	*
!!LO:LB:g=z
=30	=30	=30
8C' 8c'+	8cc' 8ee-'L	f
*clefG2	*	*
(8ccL>	8ee- (8ff#	.
8b-')	8dd' 8gg')	.
8an'J	8cc' 8aan'J	.
8g'	8dd' 8bb-'L	.
*clefF4	*	*
8c'L	16ee- (16cccL	.
.	16dd 16bb-JJ	.
8c'	8cc' 8aa'L)	.
8c'J	8b-' 8gg'J	.
=31	=31	=31
8D' 8d'L	8a' 8ff#'	.
8D' 8d'J	(16f# 16aLL	p
.	16g) 16b-JJ	.
8C' 8c'L	8f#' 8a'Lm	.
8D' 8d'J	(16f# 16aL	.
.	16g) 16b-JJ	.
8E-' 8e-'L	8f#' 8a'Lm	.
8C' 8c'J	(16f# 16aL	.
.	16g) 16b-JJ	.
8C' 8c'L	8f#' 8a'Lm	.
8D' 8d'J	(16f# 16aL	.
.	16g) 16b-JJ	.
!!LO:LB:g=z
=32	=32	=32
8E-' 8e-'	8f#' 8a'Lm	<
8FF#' 8F#'L	(16a 16ccL	.
.	16b- 16ddJJ)	.
8FF#' 8F#'	8a' 8cc'LM	.
8GG' 8G'J	16a (16ccL	.
.	16b- 16ddJJ)	.
8AA' 8A'L	8a' 8cc'LM	.
8FF#' 8F#'	16a (16ccL	.
.	16b- 16ddJJ)	.
8FF#' 8F#'	8a' 8cc'LM	.
8GG' 8G'J	16a (16ccL	.
.	16b- 16ddJJ)	.
=33	=33	=33
*	*^	*
8AA' 8A'L	8ccL	8aL	f
(8BB- 8B-	(8ddJ	(16b-L	.
.	.	16aJJ	.
8C' 8c')	8ee-'L)	8g'L)	.
(8D 8dJ	(16ddL	(8f#J	.
.	16ccJJ	.	.
8E-' 8e-'L)	8b-'L)	4g)	.
8C 8c	(16aL	.	.
.	16b-JJ	.	.
8D' 8d'	8a' 8cc'L)	4ryy	.
(8D 8dJ	16g (>16b-L	.	.
.	16f# 16aJJ	.	.
*	*v	*v	*
!!LO:LB:g=z
=34	=34	=34
8G')	8g'>)	.
*clefG2	*	*
8c' 8cc'L	16ff# (16aaLL	p
.	16gg 16bb-JJ)	.
8c' 8cc'	8ff#' 8aa'Lm	.
8d' 8dd'J	16ff# (16aaL	.
.	16gg 16bb-JJ)	.
8e-' 8ee-'L	8ff#' 8aa'Lm	.
8c' 8cc'	16ff# (16aaL	.
.	16gg 16bb-JJ)	.
8c' 8cc'	8ff#' 8aa'Lm	.
8d' 8dd'J	16ff# (16aaL	.
.	16gg 16bb-JJ)	.
=35	=35	=35
8e- 8ee-	8ff#' 8aa'Lm	<
*clefF4	*	*
8F#' 8f#'L	16aa (16cccL	.
.	16bb- 16dddJJ)	.
8F#' 8f#'	8aa' 8ccc'LM	.
8G' 8g'J	16aa (16cccL	.
.	16bb- 16dddJJ)	.
8A' 8a'L	8aa' 8ccc'LM	.
8F#' 8f#'	16aa (16cccL	.
.	16bb- 16dddJJ)	.
8F#' 8f#'	8aa' 8ccc'LM	.
8G' 8g'J	16aa (16cccL	.
.	16bb- 16dddJJ)	.
!!LO:LB:g=z
=36	=36	=36
*	*^	*
8A' 8a'	8ccc'LM	8aaL	f
*clefG2	*	*	*
(8B- 8b-L	(8dddJ	(16bb-L	.
.	.	16aaJJ	.
8c' 8cc')	8eee-'L)	8ggL)	.
(8d 8ddJ	16dddL	(8ff#J	.
.	16cccJJ	.	.
8e-' 8ee-'L)	4ryy	8gg' 8bb-'L)	.
(8c 8cc	.	16ff# (16aaL	.
.	.	16gg 16bb-JJ	.
8d' 8dd')	4ryy	8aa' 8ccc'L)	.
(8d 8ddJ	.	16gg (16bb-L	.
.	.	16ff# 16aaJJ	.
=37	=37	=37	=37
8gL)	8ryy	8ggL)	.
8g' 8cc'J	4ddd^	(16dddL	.
.	.	16ffnJJ	.
8g' 8cc'L	.	8ee-'L)	.
(8g 8ccJ	[8ccc^	(8ee-J	.
8f#' 8cc'L)	8ccc]	8dd'L)	.
8g' 8cc'J	4ddd^	(16dddL	.
.	.	16ffJJ	.
8g' 8cc'L>	.	8ee-'L)	.
(8cc 8gJ	[8ccc^	(8ee-J	.
!!LO:LB:g=z
=38	=38	=38	=38
8f#' 8cc'L)+	8cccL]	4dd)	.
(8gJ	16bb-L	.	.
.	16ggJJ	.	.
8c') 8cc'L	4ryy	8aa'L	.
8d' 8a'J	.	8ff#'Jm>	.
8G' 8g'L	4ryy	8gg'L	.
(8B- 8gJ	.	(16ggL	p
.	.	16b-JJ	.
8c') 8g'L	8a'L)	4ryy	.
8d' 8g'J	8a'J	.	.
=39	=39	=39	=39
8e-' 8g'L	4ryy	8a'L	.
(8B- 8gJ	.	(16ggL	.
.	.	16b-JJ	.
8c') 8g'L	8a'L)	4ryy	.
8d' 8g'J	8a'J	.	<
8e-' 8g'L	8cc'L	8ryy	[[
(8cJ	(16b-L	4g	mf >
.	16aJJ	.	.
8dL)	8b-L)	.	.
*clefF4	*	*	*
8D'J	8a'J	8f#'	]]
!!LO:LB:g=z
=40	=40	=40	=40
8G'L	4ryy	8g'L	f
(<8B- 8gJ	.	(16ggL	.
.	.	16ddJJ	.
8c) 8gL	4ryy	8ee-'L)	.
8A (8cJ	.	(<16ccL	.
.	.	16f#JJ	.
8B- 8dL)	(8ddL	4g)	.
8c (8e-J	16ee-L	.	.
.	16ccJJ	.	.
8d'L)	8g' 8b-'L)	4ryy	.
8D'J	8f#' 8a'J	.	.
=41	=41	=41	=41
*^	*	*	*
4ryy	8GG' 8G'L	8g'L	4ryy	.
.	(<8BB- 8GJ	(16ddL	.	.
.	.	16dJJ	.	.
4ryy	8C' 8G'L)	8e-'L)	4ryy	.
.	&(<8AA (8AJ	(>16ccL	.	.
.	.	16f#JJ	.	.
4G)	8BB-L	4.g)	8gL	.
.	8CJ	.	(16e-L	.
.	.	.	16cJJ	.
8D'<L&)	4ryy	.	8B-'L)	.
8DD'<J	.	8f#	8A' 8c' 8d'J	.
*v	*v	*	*	*
*	*v	*v	*
=42	=42	=42
1GG^	1B-^>+ 1d^>+ 1g>^	.
==:|!	==:|!	==:|!
*-	*-	*-
!!!RDF**kern: > = above
!!!RDF**kern: < = below
!!!RDF**kern: + = marked note, optional, color=silver
!!!verovio: beamFrenchStyle 1
!!!URL-vhv: https://verovio.humdrum.org/?file=scarlatti/sonatas/L338K450.krn
!!!URL-pdf: https://github.com/craigsapp/scarlatti-keyboard-sonatas/blob/master/reference-edition/L338K450.pdf
!!!URL-youtube: https://www.youtube.com/watch?v=w17tOpuRdrI Stephen Malinowski, synthesizer (piano/pipe organ)
!!!URL-youtube: https://www.youtube.com/watch?v=52yT2MskxlQ Ivo Pogorelich, piano
!!!PTL: Domenico Scarlatti: Opere complete per clavicembalo
!!!PED: Longo, Alessandro
!!!PPR: Ricordi
!!!PPP: Milan
!!!PDT: 1906-1913
!!!YEC: 2021 Craig Stuart Sapp
!!!YEM: Licence: (CC BY-NC-SA 4.0) https://creativecommons.org/licenses/by-nc-sa/4.0
!!!ENC: Craig Stuart Sapp
!!!END: 2004/10/30
!!!EED: Craig Stuart Sapp
!!!EEV: 2021/06/18
